src/components/SVGLibraries/AppIconLibrary/icon-files/dark-theme/TRIRIGAFacilitySustainability.svg

<svg id="Build_icon_here" data-name="Build icon here" xmlns="http://www.w3.org/2000/svg" viewBox="0 0 32 32"><defs><linearGradient id="e81k4897ma" x1="29" y1="16" x2="29" y2="5" gradientUnits="userSpaceOnUse"><stop offset=".1"/><stop offset=".7" stop-opacity="0"/></linearGradient><linearGradient id="w1ctnjpihc" y1="2" x2="32" y2="34" gradientTransform="matrix(1 0 0 -1 0 34)" gradientUnits="userSpaceOnUse"><stop offset=".1" stop-color="#be95ff"/><stop offset=".9" stop-color="#4589ff"/></linearGradient><mask id="alx6eak52b" x="0" y="0" width="32" height="32" maskUnits="userSpaceOnUse"><path d="M15 30H2V16a2 2 0 0 1 2-2h10V4a2 2 0 0 1 2-2h12a2 2 0 0 1 2 2v11h-2V4H16v12H4v12h3v-7a2 2 0 0 1 2-2h4a2 2 0 0 1 2 2zm-6-2h4v-7H9z" style="fill:#fff"/><path style="fill:url(#e81k4897ma)" d="M27 5h4v11h-4z"/><path style="fill:#f4f4f4" d="M18 7h2v2h-2zM24 7h2v2h-2zM18 12h2v2h-2zM24 12h2v2h-2z"/></mask></defs><g style="mask:url(#alx6eak52b)"><path style="fill:url(#w1ctnjpihc)" d="M0 0h32v32H0z"/></g><path d="M24 30h-2v-5h-1a4 4 0 0 1-4-4v-3h3a3.983 3.983 0 0 1 2.48.863A5.006 5.006 0 0 1 27 16h3v4a5.006 5.006 0 0 1-5 5h-1zm0-7h1a3 3 0 0 0 3-3v-2h-1a3 3 0 0 0-3 3zm-5-3v1a2 2 0 0 0 2 2h1v-1a2 2 0 0 0-2-2z" style="fill:#f4f4f4"/></svg>

<svg id="Build_icon_here" data-name="Build icon here" xmlns="http://www.w3.org/2000/svg" xmlns:xlink="http://www.w3.org/1999/xlink" viewBox="0 0 32 32">
  <defs>
    <linearGradient id="linear-gradient" x1="29" y1="16" x2="29" y2="5" gradientUnits="userSpaceOnUse">
      <stop offset="0.1"/>
      <stop offset="0.7" stop-opacity="0"/>
    </linearGradient>
    <mask id="mask" x="0" y="0" width="32" height="32" maskUnits="userSpaceOnUse">
      <g>
        <path d="M15,30H2V16a2,2,0,0,1,2-2H14V4a2,2,0,0,1,2-2H28a2,2,0,0,1,2,2V15H28V4H16V16H4V28H7V21a2,2,0,0,1,2-2h4a2,2,0,0,1,2,2ZM9,28h4V21H9Z" style="fill: #fff"/>
        <rect x="27" y="5" width="4" height="11" style="fill: url(#linear-gradient)"/>
      </g>
      <rect x="18" y="7" width="2" height="2" style="fill: #f4f4f4"/>
      <rect x="24" y="7" width="2" height="2" style="fill: #f4f4f4"/>
      <rect x="18" y="12" width="2" height="2" style="fill: #f4f4f4"/>
      <rect x="24" y="12" width="2" height="2" style="fill: #f4f4f4"/>
    </mask>
    <linearGradient id="linear-gradient-2" y1="2" x2="32" y2="34" gradientTransform="matrix(1, 0, 0, -1, 0, 34)" gradientUnits="userSpaceOnUse">
      <stop offset="0.1" stop-color="#be95ff"/>
      <stop offset="0.9" stop-color="#4589ff"/>
    </linearGradient>
  </defs>
  <g style="mask: url(#mask)">
    <rect width="32" height="32" style="fill: url(#linear-gradient-2)"/>
  </g>
  <path d="M24,30H22V25H21a4,4,0,0,1-4-4V18h3a3.983,3.983,0,0,1,2.48.863A5.006,5.006,0,0,1,27,16h3v4a5.006,5.006,0,0,1-5,5H24Zm0-7h1a3,3,0,0,0,3-3V18H27a3,3,0,0,0-3,3Zm-5-3v1a2,2,0,0,0,2,2h1V22a2,2,0,0,0-2-2Z" style="fill: #f4f4f4"/>
</svg>
